**harm	**harte	**kern	**silbe	**kern	**silbe	**rhyme	**timestamp	**phrase	**leadinstrument
*M4/4	*M4/4	*ICvox	*	*ICvox	*	*	*	*	*
*	*	*VRlead	*	*VRharmonize	*	*	*	*	*
*	*	*Hstimme	*	*Nstimme	*	*	*	*	*
*B:	*B:	*B:	*	*B:	*	*	*	*	*
*	*	*M4/4	*	*M4/4	*	*	*	*	*
*	*	*clefC3	*	*clefC3	*	*	*	*	*
1r;	N	r;	.	r;	.	.	0	.	r
=1	=1	=1	=1	=1	=1	=1	=1	=1	=1
*>Letter>A	*>Letter>A	*>Letter>A	*>Letter>A	*>Letter>A	*>Letter>A	*>Letter>A	*>Letter>A	*>Letter>A	*>Letter>A
*>Label>Intro	*>Label>Intro	*>Label>Intro	*>Label>Intro	*>Label>Intro	*>Label>Intro	*>Label>Intro	*>Label>Intro	*>Label>Intro	*>Label>Intro
1r	N	1r	.	1r	.	.	0.255	newline	r
=2	=2	=2	=2	=2	=2	=2	=2	=2	=2
1r	N	1r	.	1r	.	.	2.702	.	r
=3	=3	=3	=3	=3	=3	=3	=3	=3	=3
1r	N	1r	.	1r	.	.	5.148	.	r
=4	=4	=4	=4	=4	=4	=4	=4	=4	=4
1r	N	1r	.	1r	.	.	7.594	.	r
=5	=5	=5	=5	=5	=5	=5	=5	=5	=5
*>Letter>B2	*>Letter>B2	*>Letter>B2	*>Letter>B2	*>Letter>B2	*>Letter>B2	*>Letter>B2	*>Letter>B2	*>Letter>B2	*>Letter>B2
*>Label>Chorus	*>Label>Chorus	*>Label>Chorus	*>Label>Chorus	*>Label>Chorus	*>Label>Chorus	*>Label>Chorus	*>Label>Chorus	*>Label>Chorus	*>Label>Chorus
1r	N	2f#	Ce-	2d#	Ce-	.	10.041	newline	voice
.	.	4d#	-lia	4B	-lia	.	.	.	.
.	.	8r	.	8r	.	.	.	.	.
.	.	8f#	you're	8d#	you're	.	.	.	.
=6	=6	=6	=6	=6	=6	=6	=6	=6	=6
1r	N	8g#	brea-	8e	brea-	(A	12.393	.	voice
.	.	8f#	-king	8d#	-king	a)	.	.	.
.	.	8eq	_	8c#q	_	.	.	.	.
.	.	8e	my	8c#	my	.	.	.	.
.	.	[8f#	heart	[8d#	heart	.	.	.	.
.	.	8f#]	_	8d#]	_	.	.	.	.
.	.	4r	.	4r	.	.	.	.	.
.	.	8f#	You're	8d#	You're	.	.	.	.
=7	=7	=7	=7	=7	=7	=7	=7	=7	=7
1r	N	8g#	sha-	8e	sha-	(A	14.745	.	voice
.	.	8f#	-king	8d#	-king	a)	.	.	.
.	.	8e	my	8c#	my	.	.	.	.
.	.	[8f#	con	[8d#	con	.	.	.	.
.	.	8f#]	_	8d#]	_	.	.	.	.
.	.	8e	fi-	8c#	fi-	.	.	.	.
.	.	8d#	-dence	8B	-dence	.	.	.	.
.	.	16eQ	_	16BQ	_	.	.	.	.
.	.	[8f#	dai	[8c#	dai	(A	.	.	.
=8	=8	=8	=8	=8	=8	=8	=8	=8	=8
1V	F#:maj	8f#]	_	8c#]	_	.	17.097	.	voice
.	.	16c#	ly	16A#	ly	a)	.	.	.
.	.	16B	_	16G#	_	.	.	.	.
.	.	[4A#	_	[4F#	_	.	.	.	.
.	.	8A#]	_	8F#]	_	.	.	.	.
.	.	8r	.	8r	.	.	.	.	.
.	.	8d#	Oh,	8B	Oh,	.	.	.	.
.	.	8f#	Ce-	8d#	Ce-	.	.	.	.
=9	=9	=9	=9	=9	=9	=9	=9	=9	=9
2IV	E:maj	8f#	-ce	8d#	-ce	.	19.449	newline	voice
.	.	4g#	_	4e	_	.	.	.	.
.	.	8f#	_	8d#	_	.	.	.	.
2I	B:maj	8.f#	lia	8.d#	lia	.	20.624	.	voice
.	.	16r	.	16r	.	.	.	.	.
.	.	8r	.	8r	.	.	.	.	.
.	.	8d#	I'm	8B	I'm	.	.	.	.
=10	=10	=10	=10	=10	=10	=10	=10	=10	=10
2IV	E:maj	8e	down	8c#	down	.	21.799	.	voice
.	.	8d#	on	8B	on	.	.	.	.
.	.	8c#	my	8A#	my	.	.	.	.
.	.	[8d#	knees	[8B	knees	B	.	.	.
2I	B:maj	4d#]	_	4B]	_	.	22.974	.	voice
.	.	8r	.	8r	.	.	.	.	.
.	.	8d#	I'm	8B	I'm	.	.	.	.
=11	=11	=11	=11	=11	=11	=11	=11	=11	=11
2IV	E:maj	8e	beg-	8c#	beg-	.	24.149	.	voice
.	.	8d#	-ging	8B	-ging	.	.	.	.
.	.	8c#	you,	8A#	you,	.	.	.	.
.	.	[8d#	please,	[8B	please,	B	.	.	.
2I	B:maj	8d#]	_	8B]	_	.	25.324	.	voice
.	.	8c#	to	8A#	to	.	.	.	.
.	.	8B	come	8G#	come	.	.	.	.
.	.	[8A#	home	[8F#	home	.	.	.	.
=12	=12	=12	=12	=12	=12	=12	=12	=12	=12
1V	F#:maj	4A#]	_	4F#]	_	.	26.498	.	voice
.	.	4r	.	4r	.	.	.	.	.
.	.	8r	.	2r	.	.	.	.	.
.	.	16c#	Come	.	.	.	.	.	.
.	.	[16A#	on!	.	.	.	.	.	.
.	.	4A#]	_	.	.	.	.	.	.
=13	=13	=13	=13	=13	=13	=13	=13	=13	=13
*>Letter>B	*>Letter>B	*>Letter>B	*>Letter>B	*>Letter>B	*>Letter>B	*>Letter>B	*>Letter>B	*>Letter>B	*>Letter>B
*>Label>Chorus	*>Label>Chorus	*>Label>Chorus	*>Label>Chorus	*>Label>Chorus	*>Label>Chorus	*>Label>Chorus	*>Label>Chorus	*>Label>Chorus	*>Label>Chorus
1I	B:maj	2f#	Ce-	2d#	Ce-	.	28.848	newline	voice
.	.	4d#	-lia	4B	-lia	.	.	.	.
.	.	8r	.	8r	.	.	.	.	.
.	.	8f#	you're	8d#	you're	.	.	.	.
=14	=14	=14	=14	=14	=14	=14	=14	=14	=14
2IV	E:maj	8g#	brea-	8e	brea-	(A	31.209	.	voice
.	.	8f#	-king	8d#	-king	a)	.	.	.
.	.	8eq	_	8c#q	_	.	.	.	.
.	.	8e	my	8c#	my	.	.	.	.
.	.	[8f#	heart	[8d#	heart	.	.	.	.
2I	B:maj	8f#]	_	8d#]	_	.	32.39	.	voice
.	.	4r	.	4r	.	.	.	.	.
.	.	8f#	You're	8d#	You're	.	.	.	.
=15	=15	=15	=15	=15	=15	=15	=15	=15	=15
2IV	E:maj	8g#	sha-	8e	sha-	(A	33.57	.	voice
.	.	8f#	-king	8d#	-king	a)	.	.	.
.	.	8e	my	8c#	my	.	.	.	.
.	.	8eq	_	8c#q	_	.	.	.	.
.	.	[8f#	con	[8d#	con	.	.	.	.
2I	B:maj	8f#]	_	8d#]	_	.	34.751	.	voice
.	.	8e	fi-	8c#	fi-	.	.	.	.
.	.	8d#	-dence	8B	-dence	.	.	.	.
.	.	16eQ	_	16BQ	_	.	.	.	.
.	.	[8f#	dai	[8c#	dai	(A	.	.	.
=16	=16	=16	=16	=16	=16	=16	=16	=16	=16
1V	F#:maj	8f#]	_	8c#]	_	.	35.931	.	voice
.	.	16c#	ly	16A#	ly	a)	.	.	.
.	.	16B	_	16G#	_	.	.	.	.
.	.	[4A#	_	[4F#	_	.	.	.	.
.	.	8A#]	_	8F#]	_	.	.	.	.
.	.	8r	.	8r	.	.	.	.	.
.	.	8d#	Oh,	8B	Oh,	.	.	.	.
.	.	8f#	Ce-	8d#	Ce-	.	.	.	.
=17	=17	=17	=17	=17	=17	=17	=17	=17	=17
2IV	E:maj	8f#	-ce	8d#	-ce	.	38.292	newline	voice
.	.	4g#	_	4e	_	.	.	.	.
.	.	8f#	_	8d#	_	.	.	.	.
2I	B:maj	8.f#	lia	8.d#	lia	.	39.453	.	voice
.	.	16r	.	16r	.	.	.	.	.
.	.	8r	.	8r	.	.	.	.	.
.	.	8d#	I'm	8B	I'm	.	.	.	.
=18	=18	=18	=18	=18	=18	=18	=18	=18	=18
2IV	E:maj	8e	down	8c#	down	.	40.614	.	voice
.	.	8d#	on	8B	on	.	.	.	.
.	.	8c#	my	8A#	my	.	.	.	.
.	.	[8d#	knees	[8B	knees	B	.	.	.
2I	B:maj	4d#]	_	4B]	_	.	41.774	.	voice
.	.	8r	.	8r	.	.	.	.	.
.	.	8d#	I'm	8B	I'm	.	.	.	.
=19	=19	=19	=19	=19	=19	=19	=19	=19	=19
2IV	E:maj	8e	beg-	8c#	beg-	.	42.935	.	voice
.	.	8d#	-ging	8B	-ging	.	.	.	.
.	.	8c#	you,	8A#	you,	.	.	.	.
.	.	8c#q	_	8A#q	_	.	.	.	.
.	.	[8d#	please,	[8B	please,	B	.	.	.
2I	B:maj	8d#]	_	8B]	_	.	44.096	.	voice
.	.	8c#	to	8A#	to	.	.	.	.
.	.	8B	come	8G#	come	.	.	.	.
.	.	[8A#	home	[8F#	home	.	.	.	.
=20	=20	=20	=20	=20	=20	=20	=20	=20	=20
1V	F#:maj	4A#]	_	4F#]	_	.	45.257	.	voice
.	.	4r	.	4r	.	.	.	.	.
.	.	8r	.	2r	.	.	.	.	.
.	.	8F#	Come	.	.	.	.	.	.
.	.	8G#	on	.	.	.	.	.	.
.	.	[8B	home	.	.	.	.	.	.
=21	=21	=21	=21	=21	=21	=21	=21	=21	=21
1I	B:maj	4.B]	_	1r	.	.	47.578	.	voice
.	.	8r	.	.	.	.	.	.	.
.	.	2r	.	.	.	.	.	.	.
=22	=22	=22	=22	=22	=22	=22	=22	=22	=22
*>Letter>C	*>Letter>C	*>Letter>C	*>Letter>C	*>Letter>C	*>Letter>C	*>Letter>C	*>Letter>C	*>Letter>C	*>Letter>C
*>Label>Verse	*>Label>Verse	*>Label>Verse	*>Label>Verse	*>Label>Verse	*>Label>Verse	*>Label>Verse	*>Label>Verse	*>Label>Verse	*>Label>Verse
1I	B:maj	8r	.	1r	.	.	49.9	newline	voice
.	.	8B	Ma-	.	.	.	.	.	.
.	.	8c#	-king	.	.	.	.	.	.
.	.	[8d#	love	.	.	.	.	.	.
.	.	8d#]	_	.	.	.	.	.	.
.	.	8B	in	.	.	.	.	.	.
.	.	8B	the	.	.	.	.	.	.
.	.	[8e	af	.	.	.	.	.	.
=23	=23	=23	=23	=23	=23	=23	=23	=23	=23
1I	B:maj	8e]	_	1r	.	.	52.21	.	voice
.	.	4d#	ter-	.	.	.	.	.	.
.	.	[8c#	-noon	.	.	C	.	.	.
.	.	8c#]	_	.	.	.	.	.	.
.	.	8B	with	.	.	.	.	.	.
.	.	8c#	Ce-	.	.	.	.	.	.
.	.	8d#	-ce	.	.	.	.	.	.
=24	=24	=24	=24	=24	=24	=24	=24	=24	=24
1I	B:maj	8c#	_	1r	.	.	54.521	.	voice
.	.	8B	lia	.	.	.	.	.	.
.	.	8r	.	.	.	.	.	.	.
.	.	8B	u-	.	.	.	.	.	.
.	.	8e	-up	.	.	.	.	.	.
.	.	4d#	in	.	.	.	.	.	.
.	.	[8c#	my	.	.	.	.	.	.
=25	=25	=25	=25	=25	=25	=25	=25	=25	=25
2V	F#:maj	8c#]	_	2r	.	.	56.831	.	voice
.	.	4A#	bed-	.	.	.	.	.	.
.	.	[8B	-room	.	.	C	.	.	.
2I	B:maj	4B]	_	8r	.	.	57.986	.	voice
.	.	.	.	8f#	Up	.	.	.	.
.	.	4r	.	8f#	in	.	.	.	.
.	.	.	.	[8f#	my	.	.	.	.
=26	=26	=26	=26	=26	=26	=26	=26	=26	=26
1I	B:maj	8r	.	8f#]	_	.	59.142	newline	voice
.	.	8B	I	4f#	bed	.	.	.	.
.	.	8c#	got	.	.	.	.	.	.
.	.	.	.	8c#q	_	.	.	.	.
.	.	[8d#	up	[8d#	room	.	.	.	.
.	.	8d#]	_	4.d#]	_	.	.	.	.
.	.	4B	to	.	.	.	.	.	.
.	.	[8e	wash	16c#	(vocalizing)	.	.	.	.
.	.	.	.	[16B	_	.	.	.	.
=27	=27	=27	=27	=27	=27	=27	=27	=27	=27
1I	B:maj	8e]	_	4B]	_	.	61.463	.	voice
.	.	4d#	my	.	.	.	.	.	.
.	.	.	.	4r	.	.	.	.	.
.	.	[8c#	face	.	.	A	.	.	.
.	.	8c#]	_	2r	.	.	.	.	.
.	.	8r	.	.	.	.	.	.	.
.	.	8B	when	.	.	.	.	.	.
.	.	8c#	I	.	.	.	.	.	.
=28	=28	=28	=28	=28	=28	=28	=28	=28	=28
1I	B:maj	8d#	come	1r	.	.	63.785	.	voice
.	.	8e	back	.	.	.	.	.	.
.	.	8d#	to	.	.	.	.	.	.
.	.	[8d#	bed	.	.	.	.	.	.
.	.	8d#]	_	.	.	.	.	.	.
.	.	8c#	some-	.	.	.	.	.	.
.	.	8B	-one's	.	.	.	.	.	.
.	.	[8c#	ta	.	.	(A	.	.	.
=29	=29	=29	=29	=29	=29	=29	=29	=29	=29
2V	F#:maj	8c#]	_	1r	.	.	66.106	.	voice
.	.	8d#	ken	.	.	a)	.	.	.
.	.	8c#	my	.	.	.	.	.	.
.	.	[8B	place	.	.	A	.	.	.
2I	B:maj	4B]	_	.	.	.	67.267	.	voice
.	.	4r	.	.	.	.	.	.	.
=30	=30	=30	=30	=30	=30	=30	=30	=30	=30
*>Letter>B	*>Letter>B	*>Letter>B	*>Letter>B	*>Letter>B	*>Letter>B	*>Letter>B	*>Letter>B	*>Letter>B	*>Letter>B
*>Label>Chorus	*>Label>Chorus	*>Label>Chorus	*>Label>Chorus	*>Label>Chorus	*>Label>Chorus	*>Label>Chorus	*>Label>Chorus	*>Label>Chorus	*>Label>Chorus
1I	B:maj	[4f#	Ce-	[4B [4d#	Ce-	.	68.428	newline	voice
.	.	16f#]	_	16B] 16d#]	_	.	.	.	.
.	.	16e	_	16G# 16c#	_	.	.	.	.
.	.	8d#	_	8F# 8B	_	.	.	.	.
.	.	4d#	-lia	4F# 4B	-lia	.	.	.	.
.	.	8r	.	8r	.	.	.	.	.
.	.	8f#	you're	8B 8d#	you're	.	.	.	.
=31	=31	=31	=31	=31	=31	=31	=31	=31	=31
2IV	E:maj	8g#	brea-	8c# 8e	brea-	(A	70.756	.	voice
.	.	8f#	-king	8B 8d#	-king	a)	.	.	.
.	.	8eq	_	8A#q 8c#q	_	.	.	.	.
.	.	8e	my	8A# 8c#	my	.	.	.	.
.	.	[8f#	heart	[8B [8d#	heart	.	.	.	.
2I	B:maj	8f#]	_	8B] 8d#]	_	.	71.919	.	voice
.	.	4r	.	4r	.	.	.	.	.
.	.	8f#	You're	8B 8d#	You're	.	.	.	.
=32	=32	=32	=32	=32	=32	=32	=32	=32	=32
2IV	E:maj	8g#	sha-	8c# 8e	sha-	(A	73.083	.	voice
.	.	8f#	-king	8B 8d#	-king	a)	.	.	.
.	.	8e	my	8A# 8c#	my	.	.	.	.
.	.	[8f#	con	[8B [8d#	con	.	.	.	.
2I	B:maj	8f#]	_	8B] 8d#]	_	.	74.247	.	voice
.	.	8e	fi-	8A# 8c#	fi-	.	.	.	.
.	.	8d#	-dence	8G# 8B	-dence	.	.	.	.
.	.	16eQ	_	16G#Q 16BQ	_	.	.	.	.
.	.	[8f#	dai	[8A# [8c#	dai	(A	.	.	.
=33	=33	=33	=33	=33	=33	=33	=33	=33	=33
1V	F#:maj	8f#]	_	8A#] 8c#]	_	.	75.411	.	voice
.	.	16c#	ly	16A#	ly	a)	.	.	.
.	.	16B	_	16G#	_	.	.	.	.
.	.	[4A#	_	[4F#	_	.	.	.	.
.	.	8A#]	_	8F#]	_	.	.	.	.
.	.	8r	.	8r	.	.	.	.	.
.	.	8d#	Oh,	8B	Oh,	.	.	.	.
.	.	8f#	Ce-	8d#	Ce-	.	.	.	.
=34	=34	=34	=34	=34	=34	=34	=34	=34	=34
2IV	E:maj	8f#	-ce	8B 8d#	-ce	.	77.739	newline	voice
.	.	4g#	_	4c# 4e	_	.	.	.	.
.	.	8f#	_	8B 8d#	_	.	.	.	.
2I	B:maj	8.f#	lia	8.B 8.d#	lia	.	78.68	.	voice
.	.	16r	.	16r	.	.	.	.	.
.	.	8r	.	8r	.	.	.	.	.
.	.	8d#	I'm	8G# 8B	I'm	.	.	.	.
=35	=35	=35	=35	=35	=35	=35	=35	=35	=35
2IV	E:maj	8e	down	8A# 8c#	down	.	79.62	.	voice
.	.	8d#	on	8G# 8B	on	.	.	.	.
.	.	8c#	my	8F# 8A#	my	.	.	.	.
.	.	[8d#	knees	[8B	knees	B	.	.	.
2I	B:maj	4d#]	_	4B]	_	.	80.561	.	voice
.	.	8r	.	8r	.	.	.	.	.
.	.	8d#	I'm	8B	I'm	.	.	.	.
=36	=36	=36	=36	=36	=36	=36	=36	=36	=36
2IV	E:maj	8e	beg-	8c#	beg-	.	81.502	.	voice
.	.	8d#	-ging	8B	-ging	.	.	.	.
.	.	8c#	you,	8A#	you,	.	.	.	.
.	.	[8d#	please,	[8B	please,	B	.	.	.
2I	B:maj	8d#]	_	8B]	_	.	82.442	.	voice
.	.	8c#	to	8A#	to	.	.	.	.
.	.	8B	come	8G#	come	.	.	.	.
.	.	[8A#	home	[8F#	home	.	.	.	.
=37	=37	=37	=37	=37	=37	=37	=37	=37	=37
1V	F#:maj	4A#]	_	4F#]	_	.	83.383	.	voice
.	.	4r	.	4r	.	.	.	.	.
.	.	8F#	Come	2r	.	.	.	.	.
.	.	8G#	on	.	.	.	.	.	.
.	.	[4B	home	.	.	.	.	.	.
=38	=38	=38	=38	=38	=38	=38	=38	=38	=38
1I	B:maj	4B]	_	1r	.	.	85.264	.	voice
.	.	4r	.	.	.	.	.	.	.
.	.	4r	.	.	.	.	.	.	.
.	.	8c#	Bo	.	.	.	.	.	.
.	.	8d#	bo	.	.	.	.	.	.
=39	=39	=39	=39	=39	=39	=39	=39	=39	=39
*>Letter>A2	*>Letter>A2	*>Letter>A2	*>Letter>A2	*>Letter>A2	*>Letter>A2	*>Letter>A2	*>Letter>A2	*>Letter>A2	*>Letter>A2
*>Label>Interlude	*>Label>Interlude	*>Label>Interlude	*>Label>Interlude	*>Label>Interlude	*>Label>Interlude	*>Label>Interlude	*>Label>Interlude	*>Label>Interlude	*>Label>Interlude
1r	N	4e	bo	2r	.	.	87.145	newline	voice
.	.	8d#	bo	.	.	.	.	.	.
.	.	8c#	_	.	.	.	.	.	.
.	.	4B	bo,	4r	.	.	.	.	.
.	.	8e	bo	8c#	bo	.	.	.	.
.	.	8f#	bo	8d#	bo	.	.	.	.
=40	=40	=40	=40	=40	=40	=40	=40	=40	=40
1r	N	4g#	bo	4e	bo	.	89.482	.	voice
.	.	4f#	bo	4d#	bo	.	.	.	.
.	.	8e	bo	8c#	bo	.	.	.	.
.	.	4d#	bo	4B	bo	.	.	.	.
.	.	[8f#	bo	[8c#	bo	.	.	.	.
=41	=41	=41	=41	=41	=41	=41	=41	=41	=41
1r	N	8f#]	_	8c#]	_	.	91.818	.	voice
.	.	16c#	bo	16A#	bo	.	.	.	.
.	.	16B	_	16G#	_	.	.	.	.
.	.	[4A#	_	[4F#	_	.	.	.	.
.	.	8A#]	_	8F#]	_	.	.	.	.
.	.	8r	.	8r	.	.	.	.	.
.	.	4r	.	8r	.	.	.	.	.
.	.	.	.	8r	.	.	.	.	.
=42	=42	=42	=42	=42	=42	=42	=42	=42	=42
1V	F#:maj	1r	.	1r	.	.	94.155	.	voice
=43	=43	=43	=43	=43	=43	=43	=43	=43	=43
*>Letter>B	*>Letter>B	*>Letter>B	*>Letter>B	*>Letter>B	*>Letter>B	*>Letter>B	*>Letter>B	*>Letter>B	*>Letter>B
*>Label>Solo	*>Label>Solo	*>Label>Solo	*>Label>Solo	*>Label>Solo	*>Label>Solo	*>Label>Solo	*>Label>Solo	*>Label>Solo	*>Label>Solo
1I	B:maj	1r	.	1r	.	.	96.491	newline	guitar
=44	=44	=44	=44	=44	=44	=44	=44	=44	=44
2IV	E:maj	1r	.	1r	.	.	98.832	.	guitar
2I	B:maj	.	.	.	.	.	100.002	.	guitar
=45	=45	=45	=45	=45	=45	=45	=45	=45	=45
2IV	E:maj	8r	.	1r	.	.	101.172	.	guitar
.	.	16A#	Pick	.	.	.	.	.	.
.	.	16c#	it	.	.	.	.	.	.
.	.	8d#	up,	.	.	.	.	.	.
.	.	16B	pick	.	.	.	.	.	.
.	.	16d#	it	.	.	.	.	.	.
2I	B:maj	8e	up	.	.	.	102.342	.	guitar
.	.	8r	.	.	.	.	.	.	.
.	.	4r	.	.	.	.	.	.	.
=46	=46	=46	=46	=46	=46	=46	=46	=46	=46
1V	F#:maj	1r	.	1r	.	.	103.512	.	guitar
=47	=47	=47	=47	=47	=47	=47	=47	=47	=47
2IV	E:maj	1r	.	1r	.	.	105.852	newline	guitar
2I	B:maj	.	.	.	.	.	107.013	.	guitar
=48	=48	=48	=48	=48	=48	=48	=48	=48	=48
2IV	E:maj	1r	.	1r	.	.	108.174	.	guitar
2I	B:maj	.	.	.	.	.	109.335	.	guitar
=49	=49	=49	=49	=49	=49	=49	=49	=49	=49
2IV	E:maj	8r	.	1r	.	.	110.495	.	guitar
.	.	16e	Pick	.	.	.	.	.	.
.	.	16e	it	.	.	.	.	.	.
.	.	8d#	up,	.	.	.	.	.	.
.	.	16f#	pick	.	.	.	.	.	.
.	.	16f#	it	.	.	.	.	.	.
2I	B:maj	8e	up	.	.	.	111.656	.	guitar
.	.	8r	.	.	.	.	.	.	.
.	.	8B 8d#	Ju-	.	.	.	.	.	.
.	.	8d# 8f#	-bi-	.	.	.	.	.	.
=50	=50	=50	=50	=50	=50	=50	=50	=50	=50
1V	F#:maj	8f#	-la	8B 8d#	la	.	112.817	.	guitar
.	.	4g#	_	4c# 4e	_	.	.	.	.
.	.	8f#	_	8B 8d#	_	.	.	.	.
.	.	8f#	tion	8B 8d#	tion	.	.	.	.
.	.	8r	.	8r	.	.	.	.	.
.	.	8r	.	8r	.	.	.	.	.
.	.	8d#	She	8G# 8B	She	.	.	.	.
=51	=51	=51	=51	=51	=51	=51	=51	=51	=51
*>Letter>B2	*>Letter>B2	*>Letter>B2	*>Letter>B2	*>Letter>B2	*>Letter>B2	*>Letter>B2	*>Letter>B2	*>Letter>B2	*>Letter>B2
*>Label>Chorus	*>Label>Chorus	*>Label>Chorus	*>Label>Chorus	*>Label>Chorus	*>Label>Chorus	*>Label>Chorus	*>Label>Chorus	*>Label>Chorus	*>Label>Chorus
1I	B:maj	8g#	loves	8c# 8e	loves	.	115.138	newline	voice
.	.	8f#	me	8B 8d#	me	.	.	.	.
.	.	8e	a-	8A# 8c#	a-	.	.	.	.
.	.	[8f#	-gain	[8B [8d#	-gain	.	.	.	.
.	.	8f#]	_	8B] 8d#]	_	.	.	.	.
.	.	4r	.	4r	.	.	.	.	.
.	.	8f#	I	8B 8d#	I	.	.	.	.
=52	=52	=52	=52	=52	=52	=52	=52	=52	=52
2IV	E:maj	8g#	fall	8c# 8e	fall	.	117.451	.	voice
.	.	8f#	on	8B 8d#	on	.	.	.	.
.	.	8e	the	8A# 8c#	the	.	.	.	.
.	.	[8f#	floor	[8B [8d#	floor	.	.	.	.
2I	B:maj	8f#]	_	8B] 8d#]	_	.	118.607	.	voice
.	.	8e	and	8A# 8c#	and	.	.	.	.
.	.	8d#	I'm	8G# 8B	I'm	.	.	.	.
.	.	16eQ	_	16G#Q 16BQ	_	.	.	.	.
.	.	[8f#	lau	[8A# [8c#	lau	.	.	.	.
=53	=53	=53	=53	=53	=53	=53	=53	=53	=53
2IV	E:maj	8f#]	_	8A#] 8c#]	_	.	119.763	.	voice
.	.	16c#	ghing	16A#	ghing	.	.	.	.
.	.	16B	_	16G#	_	.	.	.	.
.	.	[4A#	_	[4F#	_	.	.	.	.
2I	B:maj	8A#]	_	8F#]	_	.	120.919	.	voice
.	.	8r	.	8r	.	.	.	.	.
.	.	8d#	Ju-	8B	Ju-	.	.	.	.
.	.	8f#	-bi-	8d#	-bi-	.	.	.	.
=54	=54	=54	=54	=54	=54	=54	=54	=54	=54
1V	F#:maj	8f#	-la	8B 8d#	-la	.	122.075	.	voice
.	.	4g#	_	4c# 4e	_	.	.	.	.
.	.	8f#	_	8B 8d#	_	.	.	.	.
.	.	8f#	tion	8B 8d#	tion	.	.	.	.
.	.	8r	.	8r	.	.	.	.	.
.	.	8r	.	8r	.	.	.	.	.
.	.	8d#	She	8G# 8B	She	.	.	.	.
=55	=55	=55	=55	=55	=55	=55	=55	=55	=55
2IV	E:maj	8g#	loves	8c# 8e	loves	.	124.388	newline	voice
.	.	8f#	me	8B 8d#	me	.	.	.	.
.	.	8e	a-	8A# 8c#	a-	.	.	.	.
.	.	[8f#	-gain	[8B [8d#	-gain	.	.	.	.
2I	B:maj	8f#]	_	8B] 8d#]	_	.	125.54	.	voice
.	.	4r	.	4r	.	.	.	.	.
.	.	8f#	I	8B 8d#	I	.	.	.	.
=56	=56	=56	=56	=56	=56	=56	=56	=56	=56
2IV	E:maj	8g#	fall	8c# 8e	fall	.	126.693	.	voice
.	.	8f#	on	8B 8d#	on	.	.	.	.
.	.	8e	the	8A# 8c#	the	.	.	.	.
.	.	[8f#	floor	[8B [8d#	floor	.	.	.	.
2I	B:maj	8f#]	_	8B] 8d#]	_	.	127.845	.	voice
.	.	8e	and	8A# 8c#	and	.	.	.	.
.	.	8d#	I'm	8G# 8B	I'm	.	.	.	.
.	.	16eQ	_	16G#Q 16BQ	_	.	.	.	.
.	.	[8f#	lau	[8A# [8c#	lau	.	.	.	.
=57	=57	=57	=57	=57	=57	=57	=57	=57	=57
2IV	E:maj	8f#]	_	8A#] 8c#]	_	.	128.998	.	voice
.	.	16c#	ghing	16A#	ghing	.	.	.	.
.	.	16B	_	16G#	_	.	.	.	.
.	.	[4A#	_	[4F#	_	.	.	.	.
2I	B:maj	8A#]	_	8F#]	_	.	130.151	.	voice
.	.	8r	.	8r	.	.	.	.	.
.	.	8d#	Oh	8d#	Oh	.	.	.	.
.	.	8f#	_	8d#	_	.	.	.	.
=58	=58	=58	=58	=58	=58	=58	=58	=58	=58
.	.	.	.	8d#q	_	.	.	.	.
1V	F#:maj	8f#	_	4.e	_	.	131.303	.	voice
.	.	4g#	_	.	.	.	.	.	.
.	.	8f#	_	8d#	_	.	.	.	.
.	.	8f#	ho	8d#	ho	.	.	.	.
.	.	8r	.	8r	.	.	.	.	.
.	.	8r	.	8r	.	.	.	.	.
.	.	8f#	Oh	8d#	Oh	.	.	.	.
=59	=59	=59	=59	=59	=59	=59	=59	=59	=59
2IV	E:maj	8g#	_	8e	_	.	133.609	newline	voice
.	.	8f#	_	8d#	_	.	.	.	.
.	.	8e	_	8c#	_	.	.	.	.
.	.	[8f#	ho	[8d#	ho	.	.	.	.
2I	B:maj	8f#]	_	8d#]	_	.	134.759	.	voice
.	.	4r	.	4r	.	.	.	.	.
.	.	8f#	Oh	8d#	Oh	.	.	.	.
=60	=60	=60	=60	=60	=60	=60	=60	=60	=60
2IV	E:maj	8g#	_	8e	_	.	135.909	.	voice
.	.	8f#	_	8d#	_	.	.	.	.
.	.	8e	_	8c#	_	.	.	.	.
.	.	8f#	ho	8d#	ho	.	.	.	.
2I	B:maj	8r	.	8r	.	.	137.059	.	voice
.	.	8e	oh,	8c#	oh,	.	.	.	.
.	.	8d#	_	8B	_	.	.	.	.
.	.	16eQ	_	16BQ	_	.	.	.	.
.	.	[8f#	_	[8c#	_	.	.	.	.
=61	=61	=61	=61	=61	=61	=61	=61	=61	=61
2IV	E:maj	8f#]	_	8c#]	_	.	138.21	.	voice
.	.	16c#	oh	16A#	oh	.	.	.	.
.	.	16B	_	16G#	_	.	.	.	.
.	.	[4A#	_	[4F#	_	.	.	.	.
2I	B:maj	8A#]	_	8F#]	_	.	139.36	.	voice
.	.	8r	.	8r	.	.	.	.	.
.	.	8d#	Oh	8d#	Oh	.	.	.	.
.	.	8f#	_	8d#	_	.	.	.	.
=62	=62	=62	=62	=62	=62	=62	=62	=62	=62
.	.	.	.	8d#q	_	.	.	.	.
1V	F#:maj	8f#	_	4.e	_	.	140.51	.	voice
.	.	4g#	_	.	.	.	.	.	.
.	.	8f#	_	8d#	_	.	.	.	.
.	.	8f#	ho	8d#	ho	.	.	.	.
.	.	8r	.	8r	.	.	.	.	.
.	.	8r	.	8r	.	.	.	.	.
.	.	8f#	Oh	8d#	Oh	.	.	.	.
=63	=63	=63	=63	=63	=63	=63	=63	=63	=63
2IV	E:maj	8g#	_	8e	_	.	142.81	newline	voice
.	.	8f#	_	8d#	_	.	.	.	.
.	.	8e	_	8c#	_	.	.	.	.
.	.	[8f#	ho	[8d#	ho	.	.	.	.
2I	B:maj	8f#]	_	8d#]	_	.	143.962	.	voice
.	.	4r	.	4r	.	.	.	.	.
.	.	8f#	Oh	8d#	Oh	.	.	.	.
=64	=64	=64	=64	=64	=64	=64	=64	=64	=64
2IV	E:maj	8g#	_	8e	_	.	145.113	.	voice
.	.	8f#	_	8d#	_	.	.	.	.
.	.	8e	_	8c#	_	.	.	.	.
.	.	8f#	ho	8d#	ho	.	.	.	.
2I	B:maj	8r	.	8r	.	.	146.264	.	voice
.	.	8e	oh,	8c#	oh,	.	.	.	.
.	.	8d#	_	8B	_	.	.	.	.
.	.	16eQ	_	16BQ	_	.	.	.	.
.	.	[8f#	_	[8c#	_	.	.	.	.
=65	=65	=65	=65	=65	=65	=65	=65	=65	=65
2IV	E:maj	8f#]	_	8c#]	_	.	147.416	.	voice
.	.	16c#	oh	16A#	oh	.	.	.	.
.	.	16B	_	16G#	_	.	.	.	.
.	.	[4A#	_	[4F#	_	.	.	.	.
2I	B:maj	8A#]	_	8F#]	_	.	148.567	.	voice
.	.	8r	.	8r	.	.	.	.	.
.	.	8d#	Oh	8d#	Oh	.	.	.	.
.	.	8f#	_	8d#	_	.	.	.	.
=66	=66	=66	=66	=66	=66	=66	=66	=66	=66
.	.	.	.	8d#q	_	.	.	.	.
1V	F#:maj	8f#	_	4.e	_	.	149.719	.	voice
.	.	4g#	_	.	.	.	.	.	.
.	.	8f#	_	8d#	_	.	.	.	.
.	.	8f#	ho	8d#	ho	.	.	.	.
.	.	8r	.	8r	.	.	.	.	.
.	.	8r	.	8r	.	.	.	.	.
.	.	8f#	Oh	8d#	Oh	.	.	.	.
=67	=67	=67	=67	=67	=67	=67	=67	=67	=67
*>Label>>Fadeout	*>Label>>Fadeout	*>Label>>Fadeout	*>Label>>Fadeout	*>Label>>Fadeout	*>Label>>Fadeout	*>Label>>Fadeout	*>Label>>Fadeout	*>Label>>Fadeout	*>Label>>Fadeout
2IV	E:maj	8g#	_	8e	_	.	152.021	newline	voice
.	.	8f#	_	8d#	_	.	.	.	.
.	.	8e	_	8c#	_	.	.	.	.
.	.	[8f#	ho	[8d#	ho	.	.	.	.
2I	B:maj	8f#]	_	8d#]	_	.	153.166	.	voice
.	.	4r	.	4r	.	.	.	.	.
.	.	8f#	Oh	8d#	Oh	.	.	.	.
=68	=68	=68	=68	=68	=68	=68	=68	=68	=68
2IV	E:maj	8g#	_	8e	_	.	154.311	.	voice
.	.	8f#	_	8d#	_	.	.	.	.
.	.	8e	_	8c#	_	.	.	.	.
.	.	8f#	ho	8d#	ho	.	.	.	.
2I	B:maj	8r	.	8r	.	.	155.456	.	voice
.	.	8e	oh,	8c#	oh,	.	.	.	.
.	.	8d#	_	8B	_	.	.	.	.
.	.	16eQ	_	16BQ	_	.	.	.	.
.	.	[8f#	_	[8c#	_	.	.	.	.
=69	=69	=69	=69	=69	=69	=69	=69	=69	=69
2IV	E:maj	8f#]	_	8c#]	_	.	156.601	.	voice
.	.	16c#	oh	16A#	oh	.	.	.	.
.	.	16B	_	16G#	_	.	.	.	.
.	.	[4A#	_	[4F#	_	.	.	.	.
2I	B:maj	8A#]	_	8F#]	_	.	157.745	.	voice
.	.	8r	.	8r	.	.	.	.	.
.	.	8d#	Oh	8d#	Oh	.	.	.	.
.	.	8f#	_	8d#	_	.	.	.	.
=70	=70	=70	=70	=70	=70	=70	=70	=70	=70
.	.	.	.	8d#q	_	.	.	.	.
1V	F#:maj	8f#	_	4.e	_	.	158.89	.	voice
.	.	4g#	_	.	.	.	.	.	.
.	.	8f#	_	8d#	_	.	.	.	.
.	.	8f#	ho	8d#	ho	.	.	.	.
.	.	8r	.	8r	.	.	.	.	.
.	.	8r	.	8r	.	.	.	.	.
.	.	8f#	Oh	8d#	Oh	.	.	.	.
=71	=71	=71	=71	=71	=71	=71	=71	=71	=71
2IV	E:maj	8g#	_	8e	_	.	161.18	newline	voice
.	.	8f#	_	8d#	_	.	.	.	.
.	.	8e	_	8c#	_	.	.	.	.
.	.	[8f#	ho	[8d#	ho	.	.	.	.
2I	B:maj	8f#]	_	8d#]	_	.	162.328	.	voice
.	.	4r	.	4r	.	.	.	.	.
.	.	8f#	Oh	8d#	Oh	.	.	.	.
=72	=72	=72	=72	=72	=72	=72	=72	=72	=72
2IV	E:maj	8g#	_	8e	_	.	163.475	.	voice
.	.	8f#	_	8d#	_	.	.	.	.
.	.	8e	_	8c#	_	.	.	.	.
.	.	8f#	ho	8d#	ho	.	.	.	.
2I	B:maj	8r	.	8r	.	.	164.623	.	voice
.	.	8e	oh,	8c#	oh,	.	.	.	.
.	.	8d#	_	8B	_	.	.	.	.
.	.	16eQ	_	16BQ	_	.	.	.	.
.	.	[8f#	_	[8c#	_	.	.	.	.
=73	=73	=73	=73	=73	=73	=73	=73	=73	=73
2IV	E:maj	8f#]	_	8c#]	_	.	165.771	.	voice
.	.	16c#	oh	16A#	oh	.	.	.	.
.	.	16B	_	16G#	_	.	.	.	.
.	.	[4A#	_	[4F#	_	.	.	.	.
2I	B:maj	8A#]	_	8F#]	_	.	166.918	.	voice
.	.	8r	.	8r	.	.	.	.	.
.	.	8d#	Oh	8d#	Oh	.	.	.	.
.	.	8f#	_	8d#	_	.	.	.	.
=74	=74	=74	=74	=74	=74	=74	=74	=74	=74
.	.	.	.	8d#q	_	.	.	.	.
1V	F#:maj	8f#	_	4.e	_	.	168.066	.	voice
.	.	4g#	_	.	.	.	.	.	.
.	.	8f#	_	8d#	_	.	.	.	.
.	.	8f#	ho	8d#	ho	.	.	.	.
.	.	8r	.	8r	.	.	.	.	.
.	.	8r	.	8r	.	.	.	.	.
.	.	8f#	Oh	8d#	Oh	.	.	.	.
=75	=75	=75	=75	=75	=75	=75	=75	=75	=75
2IV	E:maj	8g#	_	8e	_	.	170.361	newline	voice
.	.	8f#	_	8d#	_	.	.	.	.
.	.	8e	_	8c#	_	.	.	.	.
.	.	[8f#	ho	[8d#	ho	.	.	.	.
2I	B:maj	8f#]	_	8d#]	_	.	170.837	.	voice
.	.	4r	.	4r	.	.	.	.	.
.	.	8f#	Oh	8d#	Oh	.	.	.	.
=76	=76	=76	=76	=76	=76	=76	=76	=76	=76
2IV	E:maj	1r	.	1r	.	.	171.313	.	voice
2I	B:maj	.	.	.	.	.	171.788	.	voice
=77	=77	=77	=77	=77	=77	=77	=77	=77	=77
2IV	E:maj	1r	.	1r	.	.	172.264	.	voice
2I	B:maj	.	.	.	.	.	172.74	.	voice
=78	=78	=78	=78	=78	=78	=78	=78	=78	=78
1V	F#:maj	1r	.	1r	.	.	173.216	.	voice
1r;	N	r;	.	r;	.	.	174.167	.	r
1r;	N	r;	.	r;	.	.	176.777	.	r
*-	*-	*-	*-	*-	*-	*-	*-	*-	*-
!!!BillboardChartDate: 1970/05/30
!!!BillboardPeak: 4
!!!BillboardWeeksOnChart: 13
!!!COC: Simon & Garfunkel
!!!ENC: Nathaniel Condit-Schultz
!!!EST: Awating manual error checking and editing.
!!!OTL: Cecilia
!!!RDF**harte: Chris Harte's syntax, used by MIREX
!!!RDF**harmony: **recip + pitch class of root + harmonic quality
!!!RDF**leadinstrument: original McGill primary instrumentation annotation
!!!RDF**phrase: newline = linebreak in original McGill transcription
!!!RDF**timestamp: McGill audio timestamp in seconds
!!!RDT: 2017/01/12/
!!!SampleActualRank: 4
!!!SampleID#: 0560
!!!SampleTargetRank: 4
!!!MBID: f2fbbc03-7dbd-4bca-8019-500b8d954eb6
